www/assets/icons/mark_as_unread.svg

<svg xmlns="http://www.w3.org/2000/svg" width="24" height="24" viewBox="0 0 24 24" fill='currentColor'><path d="M18.83 7.5h-2.6l-5.73-3L4 7.9v9.6c-1.1 0-2-.9-2-2V7.67c0-.53.32-1.09.8-1.34l7.7-3.83 7.54 3.83c.43.23.73.7.79 1.17m1.17 1H7c-1.1 0-2 .9-2 2v9c0 1.1.9 2 2 2h13c1.1 0 2-.9 2-2v-9c0-1.1-.9-2-2-2m0 3.67-6.5 3.33L7 12.17V10.5l6.5 3.33L20 10.5z"/></svg>

<svg width="24" height="24" viewBox="0 0 24 24" xmlns="http://www.w3.org/2000/svg" fill='currentColor'><path d="M18.83 7.5H16.23L10.5 4.5L4 7.9V17.5C2.9 17.5 2 16.6 2 15.5V7.67C2 7.14 2.32 6.58 2.8 6.33L10.5 2.5L18.04 6.33C18.47 6.56 18.77 7.03 18.83 7.5ZM20 8.5H7C5.9 8.5 5 9.4 5 10.5V19.5C5 20.6 5.9 21.5 7 21.5H20C21.1 21.5 22 20.6 22 19.5V10.5C22 9.4 21.1 8.5 20 8.5ZM20 12.17L13.5 15.5L7 12.17V10.5L13.5 13.83L20 10.5V12.17Z"/></svg>
